svg/set/STA/T.svg

<?xml version="1.0" encoding="UTF-8" standalone="no"?>
<svg
   width="390.26801"
   height="326.785"
   viewBox="0 0 390.26801 326.785"
   version="1.1"
   xml:space="preserve"
   style="clip-rule:evenodd;fill-rule:evenodd;stroke-linejoin:round;stroke-miterlimit:2"
   id="svg5"
   xmlns="http://www.w3.org/2000/svg"
   xmlns:svg="http://www.w3.org/2000/svg"
   xmlns:serif="http://www.serif.com/">
    <g
   id="Layer-2"
   serif:id="Layer 2"
   transform="translate(-505.249,-107.546)">
        <path
   id="path847"
   d="m 851.589,187.367 22.5,161.25 21.428,20.223 c -6.708,23.069 -15.246,30.681 -38.571,36.027 l -11.92,29.33 -19.286,-24.776 c -23.349,-3.368 -36.854,-5.174 -47.009,-24.375 l 8.17,-14.197 c -52.214,5.203 -74.534,2.334 -79.665,-18.988 -0.877,-4.605 -1.786,-11.515 -1.786,-11.515 -27.121,-2.868 -50.477,0.505 -76.183,6.932 l -0.067,4.018 20.96,17.41 c -5.914,23.92 -17.882,30.037 -39.643,37.233 l -10.714,28.392 -18.75,-25.178 c -24.993,0.271 -34.406,-3.674 -48.08,-24.107 L 548.24,361.608 525.473,198.751 505.249,181.474 c 3.325,-27.171 13.492,-35.591 35.247,-37.719 l 12.7,-36.209 22.941,31.326 c 23.008,-0.911 32.834,1.285 43.422,25.492 20.516,-6.05 61.422,-10.968 87.119,-0.97 9.456,2.906 11.8,20.712 13.929,32.411 15.101,-0.142 28.735,-0.479 43.124,-2.947 l -14.039,-12.331 c 4.53,-25.697 12.911,-33.41 35.223,-36.83 l 12.913,-35.678 23.509,31.326 c 22.06,-2.544 31.347,-0.336 44.004,25.411 z"
   style="fill-rule:nonzero" />
        <path
   id="path881"
   d="m 514.61,177.661 c 5.831,-19.877 12.033,-23.966 32.956,-25.191 l 8.902,-24.054 13.826,19.698 c 21.566,-0.701 30.035,-4.003 38.639,16.478 -0.5,1.35 -1.476,3.287 -2.841,4.356 -9.242,2.666 -43.745,22.621 -40.632,27.217 1.078,1.077 2.166,1.315 3.518,0.692 20.562,-15.069 47.206,-22.659 69.88,-27.151 10.476,-1.24 45.959,-5.174 64.208,2.841 4.176,3.882 4.537,8.67 5.983,13.316 4.781,15.364 7.675,39.479 8.696,47.482 0.459,0.388 1.341,0.483 1.799,0.095 1.922,-5.835 -1.154,-17.146 2.191,-24.707 0.751,-1.699 2.086,-3.33 3.777,-4.099 31.798,0.373 53.07,-2.167 75.76,-14.899 1.303,-0.785 3.057,-1.343 3.646,-2.746 0.234,-0.558 0.137,-1.324 -0.237,-1.8 -0.324,-0.412 -0.947,-0.507 -1.468,-0.568 -11.186,2.589 -17.3,3.652 -27.605,5.54 l -15.91,-12.69 c 6.792,-22.214 11.108,-22.36 32.767,-25.001 l 9.091,-24.054 13.827,20.266 c 21.594,-0.596 28.271,-4.862 38.827,15.72 l -13.637,21.214 24.623,171.031 18.94,15.72 c -5.171,17.001 -18.957,20.225 -35.418,25.002 l -6.819,17.425 -10.985,-14.395 c -21.449,-0.573 -28.465,1.471 -41.48,-15.341 l 10.607,-16.857 c 7.799,-4.631 22.491,-12.249 24.649,-16.079 0.266,-0.693 0.315,-1.606 -0.095,-2.226 -2.515,-2.26 -6.126,1.047 -8.332,2.507 -15.763,8.468 -27.59,10.125 -50.504,12.01 -11.57,0.827 -41.855,3.032 -47.919,-9.66 -2.119,-3.799 5.714,-10.825 7.765,-11.08 1.018,-14.689 -0.441,-38.111 -2.203,-56.927 -0.203,-1.536 -0.045,-2.934 -1.689,-2.929 -1.801,0.006 -1.545,1.009 -1.823,3.318 -0.375,4.102 -2.739,26.9 -4.941,36.784 -2.202,9.883 -6.645,8.577 -6.645,8.577 -32.932,-5.673 -63.893,-0.774 -92.339,9.767 -4.996,1.922 -25.469,8.957 -26.583,12.33 -0.229,0.815 0.374,1.83 1.079,2.298 0.835,0.555 2.015,0.276 3.007,0.122 9.026,-3.267 16.95,-5.357 26.205,-7.319 v 4.8 l 19.943,17.683 c -6.499,18.978 -17.351,19.571 -36.555,25.948 l -5.682,16.857 -11.365,-14.773 c -17.263,-0.459 -33.674,0.478 -41.479,-15.531 l 14.016,-20.456 -24.812,-171.41 z"
   style="fill:url(#_Linear1);fill-rule:nonzero" />
    </g>
    <defs
   id="defs5">
        <linearGradient
   id="_Linear1"
   x1="0"
   y1="0"
   x2="1"
   y2="0"
   gradientUnits="userSpaceOnUse"
   gradientTransform="matrix(301.341,-45.4569,45.4569,301.341,547.945,289.124)"><stop
     offset="0"
     style="stop-color:rgb(97,44,117);stop-opacity:1"
     id="stop1" /><stop
     offset="0.3"
     style="stop-color:rgb(123,81,144);stop-opacity:1"
     id="stop2" /><stop
     offset="0.5"
     style="stop-color:rgb(191,153,195);stop-opacity:1"
     id="stop3" /><stop
     offset="0.7"
     style="stop-color:rgb(123,81,144);stop-opacity:1"
     id="stop4" /><stop
     offset="1"
     style="stop-color:rgb(97,44,117);stop-opacity:1"
     id="stop5" /></linearGradient>
    </defs>
</svg>

<?xml version="1.0" encoding="UTF-8" standalone="no"?>
<!DOCTYPE svg PUBLIC "-//W3C//DTD SVG 1.1//EN" "http://www.w3.org/Graphics/SVG/1.1/DTD/svg11.dtd">
<svg width="100%" height="100%" viewBox="0 0 391 327" version="1.1" xmlns="http://www.w3.org/2000/svg" xmlns:xlink="http://www.w3.org/1999/xlink" xml:space="preserve" xmlns:serif="http://www.serif.com/" style="fill-rule:evenodd;clip-rule:evenodd;stroke-linejoin:round;stroke-miterlimit:2;">
    <g id="Layer-2" serif:id="Layer 2" transform="matrix(1,0,0,1,-505.249,-107.546)">
        <path id="path847" d="M851.589,187.367L874.089,348.617L895.517,368.84C888.809,391.909 880.271,399.521 856.946,404.867L845.026,434.197L825.74,409.421C802.391,406.053 788.886,404.247 778.731,385.046L786.901,370.849C734.687,376.052 712.367,373.183 707.236,351.861C706.359,347.256 705.45,340.346 705.45,340.346C678.329,337.478 654.973,340.851 629.267,347.278L629.2,351.296L650.16,368.706C644.246,392.626 632.278,398.743 610.517,405.939L599.803,434.331L581.053,409.153C556.06,409.424 546.647,405.479 532.973,385.046L548.24,361.608L525.473,198.751L505.249,181.474C508.574,154.303 518.741,145.883 540.496,143.755L553.196,107.546L576.137,138.872C599.145,137.961 608.971,140.157 619.559,164.364C640.075,158.314 680.981,153.396 706.678,163.394C716.134,166.3 718.478,184.106 720.607,195.805C735.708,195.663 749.342,195.326 763.731,192.858L749.692,180.527C754.222,154.83 762.603,147.117 784.915,143.697L797.828,108.019L821.337,139.345C843.397,136.801 852.684,139.009 865.341,164.756L851.589,187.367Z" style="fill-rule:nonzero;"/>
        <path id="path881" d="M514.61,177.661C520.441,157.784 526.643,153.695 547.566,152.47L556.468,128.416L570.294,148.114C591.86,147.413 600.329,144.111 608.933,164.592C608.433,165.942 607.457,167.879 606.092,168.948C596.85,171.614 562.347,191.569 565.46,196.165C566.538,197.242 567.626,197.48 568.978,196.857C589.54,181.788 616.184,174.198 638.858,169.706C649.334,168.466 684.817,164.532 703.066,172.547C707.242,176.429 707.603,181.217 709.049,185.863C713.83,201.227 716.724,225.342 717.745,233.345C718.204,233.733 719.086,233.828 719.544,233.44C721.466,227.605 718.39,216.294 721.735,208.733C722.486,207.034 723.821,205.403 725.512,204.634C757.31,205.007 778.582,202.467 801.272,189.735C802.575,188.95 804.329,188.392 804.918,186.989C805.152,186.431 805.055,185.665 804.681,185.189C804.357,184.777 803.734,184.682 803.213,184.621C792.027,187.21 785.913,188.273 775.608,190.161L759.698,177.471C766.49,155.257 770.806,155.111 792.465,152.47L801.556,128.416L815.383,148.682C836.977,148.086 843.654,143.82 854.21,164.402L840.573,185.616L865.196,356.647L884.136,372.367C878.965,389.368 865.179,392.592 848.718,397.369L841.899,414.794L830.914,400.399C809.465,399.826 802.449,401.87 789.434,385.058L800.041,368.201C807.84,363.57 822.532,355.952 824.69,352.122C824.956,351.429 825.005,350.516 824.595,349.896C822.08,347.636 818.469,350.943 816.263,352.403C800.5,360.871 788.673,362.528 765.759,364.413C754.189,365.24 723.904,367.445 717.84,354.753C715.721,350.954 723.554,343.928 725.605,343.673C726.623,328.984 725.164,305.562 723.402,286.746C723.199,285.21 723.357,283.812 721.713,283.817C719.912,283.823 720.168,284.826 719.89,287.135C719.515,291.237 717.151,314.035 714.949,323.919C712.747,333.802 708.304,332.496 708.304,332.496C675.372,326.823 644.411,331.722 615.965,342.263C610.969,344.185 590.496,351.22 589.382,354.593C589.153,355.408 589.756,356.423 590.461,356.891C591.296,357.446 592.476,357.167 593.468,357.013C602.494,353.746 610.418,351.656 619.673,349.694L619.673,354.494L639.616,372.177C633.117,391.155 622.265,391.748 603.061,398.125L597.379,414.982L586.014,400.209C568.751,399.75 552.34,400.687 544.535,384.678L558.551,364.222L533.739,192.812L514.61,177.661Z" style="fill:url(#_Linear1);fill-rule:nonzero;"/>
    </g>
    <defs>
        <linearGradient id="_Linear1" x1="0" y1="0" x2="1" y2="0" gradientUnits="userSpaceOnUse" gradientTransform="matrix(301.341,-45.4569,45.4569,301.341,547.945,289.124)"><stop offset="0" style="stop-color:rgb(97,44,117);stop-opacity:1"/><stop offset="0.3" style="stop-color:rgb(123,81,144);stop-opacity:1"/><stop offset="0.5" style="stop-color:rgb(191,153,195);stop-opacity:1"/><stop offset="0.7" style="stop-color:rgb(123,81,144);stop-opacity:1"/><stop offset="1" style="stop-color:rgb(97,44,117);stop-opacity:1"/></linearGradient>
    </defs>
</svg>
